X:15324
T:Shepherd's Daughter, The
T:John Egan's
R:reel
H:Played single or double. See also #315
D:Paul McGrattan & Paul O'Shaughnessy: Within a Mile of Dublin
Z:id:hn-reel-721
M:C|
K:Ador
e3g edBd|eA~A2 eA (3B^cd|e2ge edB=c|dG~G2 dG (3B^cd|
e2ge edBd|eA~A2 B2BA|GABd efga|bgaf g2fg||
eaaf g2fg|eaag edBd|eaaf g2fg|egde gdBd|
eaaf g2fg|eaab =c'abg|eaaf g2fg|egde gd (3B^cd||
"variations"
~e2ge ed (3B^cd|eA~A2 BABd|eggd edB^c|dG~G2 BG (3B^cd|
~e3g ed (3B^cd|eA~A2 ABBA|G2 (3B^cd efga|bgaf gefd||
eaaf gefd|eaag ed (3B^cd|eaaf gefd|(3efg de gd (3B^cd|
e2af g2ag|eaab =c'bag|eaaf g2fg|(3efg de gdBd||


